symbols/web/wash/materialsymbolsrounded/wash_wght700grad200_20px.svg

<svg xmlns="http://www.w3.org/2000/svg" height="20" width="20"><path d="M16.625 6.438q-1.021 0-1.75-.74-.729-.74-.729-1.76 0-.73.51-1.657.511-.927 1.052-1.677.146-.271.407-.385.26-.115.51-.115.229 0 .49.115.26.114.406.385.541.75 1.052 1.667.51.917.51 1.667 0 1.02-.708 1.76t-1.75.74Zm-5 .833q-.604 0-1.031-.438-.427-.437-.427-1.062 0-.271.156-.625t.406-.708q.146-.271.396-.417.25-.146.521-.146.25 0 .51.146.261.146.406.417.25.354.407.708.156.354.156.625 0 .625-.437 1.062-.438.438-1.063.438ZM2.271 21.458q-1.354 0-2.323-.968-.969-.969-.969-2.323v-5.959q0-.708.271-1.312.271-.604.771-1.063l6.291-6q.459-.416 1.042-.416.584 0 1.021.437l.271.354q.312.334.375.761.062.427-.188.823l-1.271 2.27h9.334q.604 0 1.042.469.437.469.437 1.094 0 .646-.448 1.094-.448.448-1.115.448h-6.124q-.084 0-.136.031-.052.031-.052.114 0 .084.052.136.052.052.136.052h8.124q.667 0 1.115.448.448.448.448 1.094 0 .646-.448 1.093-.448.448-1.115.448h-8.124q-.084 0-.136.052-.052.053-.052.136 0 .083.052.125.052.042.136.042h7.145q.646 0 1.084.447.437.448.437 1.094 0 .667-.437 1.104-.438.438-1.084.438h-7.145q-.084 0-.136.052-.052.052-.052.115 0 .062.052.114.052.052.136.052h5.145q.646 0 1.094.448.448.448.448 1.115 0 .645-.448 1.093-.448.448-1.094.448Zm0-2.604h5.646v-8.208H4.938V8.708l-3.126 2.917q-.02.063-.124.229-.105.167-.105.375v5.938q0 .271.198.479.198.208.49.208Zm2.479-5.083Z"/></svg>

<svg xmlns="http://www.w3.org/2000/svg" height="20" width="20"><path d="M16.625 6.438Q15.604 6.438 14.875 5.698Q14.146 4.958 14.146 3.938Q14.146 3.208 14.656 2.281Q15.167 1.354 15.708 0.604Q15.854 0.333 16.115 0.219Q16.375 0.104 16.625 0.104Q16.854 0.104 17.115 0.219Q17.375 0.333 17.521 0.604Q18.062 1.354 18.573 2.271Q19.083 3.188 19.083 3.938Q19.083 4.958 18.375 5.698Q17.667 6.438 16.625 6.438ZM11.625 7.271Q11.021 7.271 10.594 6.833Q10.167 6.396 10.167 5.771Q10.167 5.5 10.323 5.146Q10.479 4.792 10.729 4.438Q10.875 4.167 11.125 4.021Q11.375 3.875 11.646 3.875Q11.896 3.875 12.156 4.021Q12.417 4.167 12.562 4.438Q12.812 4.792 12.969 5.146Q13.125 5.5 13.125 5.771Q13.125 6.396 12.688 6.833Q12.25 7.271 11.625 7.271ZM2.271 21.458Q0.917 21.458 -0.052 20.49Q-1.021 19.521 -1.021 18.167V12.208Q-1.021 11.5 -0.75 10.896Q-0.479 10.292 0.021 9.833L6.312 3.833Q6.771 3.417 7.354 3.417Q7.938 3.417 8.375 3.854L8.646 4.208Q8.958 4.542 9.021 4.969Q9.083 5.396 8.833 5.792L7.562 8.062H16.896Q17.5 8.062 17.938 8.531Q18.375 9 18.375 9.625Q18.375 10.271 17.927 10.719Q17.479 11.167 16.812 11.167H10.688Q10.604 11.167 10.552 11.198Q10.5 11.229 10.5 11.312Q10.5 11.396 10.552 11.448Q10.604 11.5 10.688 11.5H18.812Q19.479 11.5 19.927 11.948Q20.375 12.396 20.375 13.042Q20.375 13.688 19.927 14.135Q19.479 14.583 18.812 14.583H10.688Q10.604 14.583 10.552 14.635Q10.5 14.688 10.5 14.771Q10.5 14.854 10.552 14.896Q10.604 14.938 10.688 14.938H17.833Q18.479 14.938 18.917 15.385Q19.354 15.833 19.354 16.479Q19.354 17.146 18.917 17.583Q18.479 18.021 17.833 18.021H10.688Q10.604 18.021 10.552 18.073Q10.5 18.125 10.5 18.188Q10.5 18.25 10.552 18.302Q10.604 18.354 10.688 18.354H15.833Q16.479 18.354 16.927 18.802Q17.375 19.25 17.375 19.917Q17.375 20.562 16.927 21.01Q16.479 21.458 15.833 21.458ZM2.271 18.854H7.917V10.646H4.938V8.708L1.812 11.625Q1.792 11.688 1.688 11.854Q1.583 12.021 1.583 12.229V18.167Q1.583 18.438 1.781 18.646Q1.979 18.854 2.271 18.854ZM4.75 13.771Q4.75 13.771 4.75 13.771Q4.75 13.771 4.75 13.771Q4.75 13.771 4.75 13.771Q4.75 13.771 4.75 13.771Z"/></svg>
